public/assets/brands/cbu.svg

<svg width="212" height="212" viewBox="0 0 212 212" fill="none" xmlns="http://www.w3.org/2000/svg">
<g clip-path="url(#clip0_142_2432)">
<path d="M206 0H6C2.68629 0 0 2.68629 0 6V206C0 209.314 2.68629 212 6 212H206C209.314 212 212 209.314 212 206V6C212 2.68629 209.314 0 206 0Z" fill="#F5F5F5"/>
<path fill-rule="evenodd" clip-rule="evenodd" d="M159.39 108.37C159.39 142.95 138.11 156.67 106.87 156.61L105.49 156.63C72.84 156.65 52.66 141.56 52.66 108.36V103.73C52.66 66.1301 74.36 54.0101 105.49 54.0301H106.87C137.92 54.0001 159.39 66.8601 159.39 103.72V108.36V108.37ZM151.61 103.9C151.61 69.2001 133.27 59.2201 106.76 59.2301H105.58C77.68 59.2001 60.44 69.3101 60.44 103.9V108.07C60.44 138.71 76.11 151.5 105.57 151.47H106.75C134.2 151.49 151.61 140.47 151.61 108.06V103.9Z" fill="black"/>
<path fill-rule="evenodd" clip-rule="evenodd" d="M134.04 95.5002C142.26 94.3702 144.25 91.0902 144.25 86.1502C144.25 79.7102 137.7 76.9202 126.16 76.9202H109.79V78.9302C111.94 79.2502 112.67 80.1902 112.67 82.4502V109.96C112.67 112.37 111.93 113.33 109.79 113.66V115.7H125.87V121.92C125.87 131.33 122.17 135.9 113.68 135.9C104.36 135.9 100.62 130.43 100.62 118.6V118.07C104.4 115.76 107.26 112.21 108.89 107.45L106.36 106.28C104.11 112.48 97.16 116.74 91.72 116.76C82.93 116.82 78.1 110.28 78.1 97.3002C78.1 84.3202 82.53 77.3402 90.23 77.3402C96.43 77.3402 101.27 80.4102 104.69 89.6602H106.35V73.4202H104.76L102.01 77.2202C101.23 78.0602 101.11 78.1402 99.36 76.7502C95.87 73.9702 92.11 72.4702 87.7 72.4902C75.12 72.4902 65.61 82.7602 65.61 96.8302C65.61 110.9 75.44 121.44 88.26 121.3C88.83 121.3 89.4 121.27 89.95 121.23C90.09 126.44 90.71 130.49 93.26 133.9C96.53 138.3 102.52 140.86 110.58 140.86C117.93 140.86 123.51 138.22 126.47 133.73C129.11 129.73 129.18 125.32 129.18 120.04V112.62V100.2H125.89V112.86C121.59 112.86 121.32 112.15 121.32 109.55V97.6402H125.39C132.14 97.6402 135.49 100.16 135.49 105.34C135.49 108.76 134.19 110.94 131.42 112.03V115.64C140.77 115.21 146.08 112.09 146.08 105.97C146.08 100.32 143.46 96.6102 134.07 95.4902H134.04V95.5002ZM125.47 94.8302H121.28V83.0602C121.28 80.2102 121.95 79.6102 125.41 79.6102C132 79.6102 134.29 81.3002 134.29 87.0402C134.29 93.0702 131.71 94.8302 125.46 94.8302H125.47Z" fill="black"/>
<path fill-rule="evenodd" clip-rule="evenodd" d="M87.0199 100.87C89.1399 101.2 89.8899 102.15 89.8899 104.56V114.2C90.4899 114.28 91.0899 114.31 91.6999 114.3C94.5199 114.28 97.9799 112.83 100.61 110.41V104.56C100.61 102.15 101.36 101.19 103.48 100.87V98.8201H87.0099V100.87H87.0199Z" fill="black"/>
</g>
<defs>
<clipPath id="clip0_142_2432">
<rect width="212" height="212" fill="white"/>
</clipPath>
</defs>
</svg>

<svg fill="none" height="212" viewBox="0 0 212 212" width="212" xmlns="http://www.w3.org/2000/svg" xmlns:xlink="http://www.w3.org/1999/xlink"><clipPath id="a"><path d="m0 0h212v212h-212z"/></clipPath><g clip-path="url(#a)"><path d="m206 0h-200c-3.31371 0-6 2.68629-6 6v200c0 3.314 2.68629 6 6 6h200c3.314 0 6-2.686 6-6v-200c0-3.31371-2.686-6-6-6z" fill="#f5f5f5"/><g clip-rule="evenodd" fill="#000" fill-rule="evenodd"><path d="m159.39 108.37c0 34.58-21.28 48.3-52.52 48.24l-1.38.02c-32.65.02-52.83-15.07-52.83-48.27v-4.63c0-37.5999 21.7-49.7199 52.83-49.6999h1.38c31.05-.03 52.52 12.83 52.52 49.6899v4.64zm-7.78-4.47c0-34.6999-18.34-44.6799-44.85-44.6699h-1.18c-27.9-.03-45.14 10.08-45.14 44.6699v4.17c0 30.64 15.67 43.43 45.13 43.4h1.18c27.45.02 44.86-11 44.86-43.41z"/><path d="m134.04 95.5002c8.22-1.13 10.21-4.41 10.21-9.35 0-6.44-6.55-9.23-18.09-9.23h-16.37v2.01c2.15.32 2.88 1.26 2.88 3.52v27.5098c0 2.41-.74 3.37-2.88 3.7v2.04h16.08v6.22c0 9.41-3.7 13.98-12.19 13.98-9.32 0-13.06-5.47-13.06-17.3v-.53c3.78-2.31 6.64-5.86 8.27-10.62l-2.53-1.17c-2.25 6.2-9.2 10.46-14.64 10.48-8.79.06-13.62-6.48-13.62-19.4598 0-12.98 4.43-19.96 12.13-19.96 6.2 0 11.04 3.07 14.46 12.32h1.66v-16.24h-1.59l-2.75 3.8c-.78.84-.9.92-2.65-.47-3.49-2.78-7.25-4.28-11.66-4.26-12.58 0-22.09 10.27-22.09 24.34 0 14.0698 9.83 24.6098 22.65 24.4698.57 0 1.14-.03 1.69-.07.14 5.21.76 9.26 3.31 12.67 3.27 4.4 9.26 6.96 17.32 6.96 7.35 0 12.93-2.64 15.89-7.13 2.64-4 2.71-8.41 2.71-13.69v-7.42-12.42h-3.29v12.66c-4.3 0-4.57-.71-4.57-3.31v-11.9098h4.07c6.75 0 10.1 2.5198 10.1 7.6998 0 3.42-1.3 5.6-4.07 6.69v3.61c9.35-.43 14.66-3.55 14.66-9.67 0-5.65-2.62-9.3598-12.01-10.4798h-.03zm-8.57-.67h-4.19v-11.77c0-2.85.67-3.45 4.13-3.45 6.59 0 8.88 1.69 8.88 7.43 0 6.03-2.58 7.79-8.83 7.79z"/><path d="m87.0199 100.87c2.12.33 2.87 1.28 2.87 3.69v9.64c.6.08 1.2.11 1.81.1 2.82-.02 6.28-1.47 8.9101-3.89v-5.85c0-2.41.75-3.37 2.87-3.69v-2.0499h-16.4701v2.0499z"/></g></g></svg>
